icons/unhealthy_food.svg

<svg width="48" height="48" viewBox="0 0 48 48" fill="none" xmlns="http://www.w3.org/2000/svg">
<path fill-rule="evenodd" clip-rule="evenodd" d="M31.2276 4L30.0172 8.63991L30.0858 7.62947L24.0001 10.5416V6.64833L17.0001 8.78977V12.4093L15.23 5.80745L9.62842 11.0438L12.0677 20.1472C12.1833 20.207 12.2905 20.2836 12.3849 20.3748C13.2155 21.1776 14.0138 21.9072 14.7857 22.5635L11.8709 11.6853L14.1613 9.54423L17.0001 20.1317V24.2931C17.6836 24.7752 18.3486 25.1921 19.0001 25.5438L19.0001 10.2694L22.0001 9.35167V26.7207C22.7599 26.8992 23.511 26.9798 24.2621 26.9624L25.2682 12.152L27.8582 10.9127L26.7968 26.5359C27.6043 26.2851 28.423 25.9244 29.2637 25.4536L31.5913 16.7667L34.4309 15.9148L32.4717 23.2267C33.3442 22.5164 34.2487 21.7049 35.1947 20.7918L37.3418 12.7784L35.5752 13.2299L38.3442 4H31.2276ZM35.6561 6L33.3137 13.8079L30.5518 14.5139L32.7728 6H35.6561Z" fill="black"/>
<path fill-rule="evenodd" clip-rule="evenodd" d="M35.5885 23.1689C31.6368 26.7987 27.9879 28.9708 24.0462 28.9647C20.1022 28.9587 16.4205 26.771 12.4078 23.1369L14.7657 42H33.2346L35.5885 23.1689ZM11.4698 20C10.6894 20 10.0856 20.6839 10.1824 21.4583L12.7811 42.2481C12.9062 43.2489 13.757 44 14.7657 44H33.2346C34.2432 44 35.094 43.2489 35.2191 42.2481L37.8185 21.4532C37.9149 20.6815 37.3133 20 36.5357 20C36.1928 20 35.8596 20.1414 35.6152 20.3819C26.6752 29.1784 21.4561 29.1419 12.3849 20.3748C12.1404 20.1385 11.8097 20 11.4698 20Z" fill="black"/>
</svg>

<svg
  xmlns="http://www.w3.org/2000/svg"
  width="24"
  height="24"
  viewBox="0 0 24 24"
  fill="none"
  stroke="currentColor"
  stroke-width="2"
  stroke-linecap="round"
  stroke-linejoin="round"
>
  <path
    fill-rule="evenodd"
    d="m31.228 4-1.21 4.64.068-1.01L24 10.541V6.648L17 8.79v3.62l-1.77-6.603-5.602 5.237 2.44 9.103q.174.09.317.228 1.244 1.204 2.4 2.189l-2.914-10.879 2.29-2.14 2.84 10.587v4.161q1.023.724 2 1.25V10.27l3-.917V26.72q1.137.267 2.261.241l1.006-14.81 2.59-1.24-1.061 15.624a13 13 0 0 0 2.467-1.082l2.327-8.687 2.84-.852-1.96 7.312a44 44 0 0 0 2.724-2.435l2.147-8.014-1.767.452L38.345 4zm4.428 2-2.342 7.808-2.762.706L32.772 6z"
    clip-rule="evenodd"
  />
  <path
    fill-rule="evenodd"
    d="M35.589 23.169c-3.952 3.63-7.601 5.802-11.543 5.796-3.944-.006-7.625-2.194-11.638-5.828L14.766 42h18.469zM11.469 20c-.78 0-1.383.684-1.287 1.458l2.6 20.79A2 2 0 0 0 14.765 44h18.469a2 2 0 0 0 1.984-1.752l2.6-20.795a1.293 1.293 0 0 0-2.204-1.071c-8.94 8.796-14.159 8.76-23.23-.007A1.33 1.33 0 0 0 11.47 20"
    clip-rule="evenodd"
  />
</svg>
